svgs/sharp-regular/inboxes.svg

<svg xmlns="http://www.w3.org/2000/svg" viewBox="0 0 512 512"><!--! Font Awesome Pro 6.6.0 by @fontawesome - https://fontawesome.com License - https://fontawesome.com/license (Commercial License) Copyright 2024 Fonticons, Inc. --><path d="M62.5 96L160 96l32 64 128 0 32-64 97.5 0-40-48-307 0-40 48zM512 96l0 48 0 96 0 48-48 0L48 288 0 288l0-48 0-96L0 96 80 0 432 0l80 96zm-48 48l-82.3 0-18.7 37.5L349.7 208 320 208l-128 0-29.7 0-13.3-26.5L130.3 144 48 144l0 96 416 0 0-96zM192 384l128 0 32-64 112 0 48 0 0 48 0 96 0 48-48 0L48 512 0 512l0-48 0-96 0-48 48 0 112 0 32 64zm189.7-16l-18.7 37.5L349.7 432 320 432l-128 0-29.7 0-13.3-26.5L130.3 368 48 368l0 96 416 0 0-96-82.3 0z"/></svg>

<svg xmlns="http://www.w3.org/2000/svg" viewBox="0 0 512 512"><!--! Font Awesome Pro 6.4.0 by @fontawesome - https://fontawesome.com License - https://fontawesome.com/license (Commercial License) Copyright 2023 Fonticons, Inc. --><path d="M62.5 96H160l32 64H320l32-64h97.5l-40-48h-307l-40 48zM512 96v48 96 48H464 48 0V240 144 96L80 0H432l80 96zm-48 48H381.7l-18.7 37.5L349.7 208H320 192 162.3l-13.3-26.5L130.3 144H48v96H464V144zM192 384H320l32-64H464h48v48 96 48H464 48 0V464 368 320H48 160l32 64zm189.7-16l-18.7 37.5L349.7 432H320 192 162.3l-13.3-26.5L130.3 368H48v96H464V368H381.7z"/></svg>
